X: 8108
T: Contentment Is Wealth
R: jig
M: 6/8
K: Edorian
EF|~G3 Eed|~B3 dBA|~F3 DdB|AFD Dzf|
~g3 edB|BAB dzd|B/2c/2dB DFA|GED EEF|
~G3 Ezd|~B3 EAG|~F3 DdB|AFD Def|
~g3 edB|BAB dzd|B/2c/2dB AGF|GED EEB||
~e3 Beg|bge gfe|ded Adf|afd fed|
eze Beg|bge gfe|B/2c/2dB AGF|GED EEz|
~e3 Beg|bge gfe|ded Adf|~a3 afd|
eze Beg|bge gfe|B/2c/2dB AGF|GED EEF||

